symbols/web/format_textdirection_r_to_l/materialsymbolsrounded/format_textdirection_r_to_l_wght600_20px.svg

<svg xmlns="http://www.w3.org/2000/svg" height="20" width="20"><path d="M5.396 18.021 3.104 15.75q-.166-.167-.26-.385-.094-.219-.094-.427 0-.209.094-.428.094-.218.26-.385l2.292-2.292q.292-.312.729-.312t.729.312q.313.313.313.74t-.313.739l-.542.584h10.355q.416 0 .729.302.312.302.312.74 0 .437-.312.739-.313.302-.729.302H6.312l.542.583q.313.313.313.73 0 .416-.313.729-.292.312-.729.312t-.729-.312ZM8.938 12.5q-.417 0-.73-.312-.312-.313-.312-.73V8.396q-1.417-.084-2.375-1.094-.959-1.01-.959-2.427 0-1.479 1.042-2.531t2.5-1.052h6.125q.438 0 .761.323.322.323.322.76 0 .417-.322.729-.323.313-.74.313h-.562v8.041q0 .417-.323.73-.323.312-.74.312-.437 0-.75-.312-.313-.313-.313-.73V3.417H10v8.041q0 .417-.312.73-.313.312-.75.312ZM7.896 6.292V3.417q-.563 0-.896.427-.333.427-.333 1.01 0 .604.333 1.021.333.417.896.417Zm0-1.417Z"/></svg>

<svg xmlns="http://www.w3.org/2000/svg" height="20" width="20"><path d="M5.396 18.021 3.104 15.75Q2.938 15.583 2.844 15.365Q2.75 15.146 2.75 14.938Q2.75 14.729 2.844 14.51Q2.938 14.292 3.104 14.125L5.396 11.833Q5.688 11.521 6.125 11.521Q6.562 11.521 6.854 11.833Q7.167 12.146 7.167 12.573Q7.167 13 6.854 13.312L6.312 13.896H16.667Q17.083 13.896 17.396 14.198Q17.708 14.5 17.708 14.938Q17.708 15.375 17.396 15.677Q17.083 15.979 16.667 15.979H6.312L6.854 16.562Q7.167 16.875 7.167 17.292Q7.167 17.708 6.854 18.021Q6.562 18.333 6.125 18.333Q5.688 18.333 5.396 18.021ZM8.938 12.5Q8.521 12.5 8.208 12.188Q7.896 11.875 7.896 11.458V8.396Q6.479 8.312 5.521 7.302Q4.562 6.292 4.562 4.875Q4.562 3.396 5.604 2.344Q6.646 1.292 8.104 1.292H14.229Q14.667 1.292 14.99 1.615Q15.312 1.938 15.312 2.375Q15.312 2.792 14.99 3.104Q14.667 3.417 14.25 3.417H13.688V11.458Q13.688 11.875 13.365 12.188Q13.042 12.5 12.625 12.5Q12.188 12.5 11.875 12.188Q11.562 11.875 11.562 11.458V3.417H10V11.458Q10 11.875 9.688 12.188Q9.375 12.5 8.938 12.5ZM7.896 6.292V3.417Q7.333 3.417 7 3.844Q6.667 4.271 6.667 4.854Q6.667 5.458 7 5.875Q7.333 6.292 7.896 6.292ZM7.896 4.875Q7.896 4.875 7.896 4.875Q7.896 4.875 7.896 4.875Q7.896 4.875 7.896 4.875Q7.896 4.875 7.896 4.875Z"/></svg>
